packages/symbols/svgs/outline/news-outline.svg

<svg width="24" height="24" viewBox="0 0 24 24" fill="none" xmlns="http://www.w3.org/2000/svg">
<g clip-path="url(#clip0_1279_4428)">
<path fill-rule="evenodd" clip-rule="evenodd" d="M8 14C8 13.4477 8.44772 13 9 13H19C19.5523 13 20 13.4477 20 14C20 14.5523 19.5523 15 19 15H9C8.44772 15 8 14.5523 8 14Z" fill="black"/>
<path fill-rule="evenodd" clip-rule="evenodd" d="M8 18C8 17.4477 8.44772 17 9 17H19C19.5523 17 20 17.4477 20 18C20 18.5523 19.5523 19 19 19H9C8.44772 19 8 18.5523 8 18Z" fill="black"/>
<path fill-rule="evenodd" clip-rule="evenodd" d="M8 6C8 5.44772 8.44772 5 9 5H19C19.5523 5 20 5.44772 20 6V10C20 10.5523 19.5523 11 19 11H9C8.44772 11 8 10.5523 8 10V6ZM10 7V9H18V7H10Z" fill="black"/>
<path fill-rule="evenodd" clip-rule="evenodd" d="M0 13C0 12.4477 0.447715 12 1 12H2C2.55228 12 3 12.4477 3 13C3 13.5523 2.55228 14 2 14V20.9983C2.00112 21.2636 2.10701 21.5177 2.29464 21.7054C2.48257 21.8933 2.73722 21.9992 3.00299 22C3.55527 22.0017 4.00165 22.4507 4 23.003C3.99835 23.5553 3.5493 24.0016 2.99701 24C2.20289 23.9976 1.44196 23.6811 0.880428 23.1196C0.318893 22.558 0.0023762 21.7971 4.47035e-06 21.003L0 21V13Z" fill="black"/>
<path fill-rule="evenodd" clip-rule="evenodd" d="M4 1C4 0.447715 4.44772 0 5 0H23C23.5523 0 24 0.447715 24 1V21L24 21.003C23.9976 21.7971 23.6811 22.558 23.1196 23.1196C22.558 23.6811 21.7971 23.9976 21.003 24L21 24H3C2.4483 24 2.00082 23.5532 2 23.0015C1.99918 22.4498 2.44531 22.0017 2.99701 22C3.26278 21.9992 3.51743 21.8933 3.70536 21.7054C3.89299 21.5177 3.99888 21.2636 4 20.9982V1ZM6 2V21L6 21.003C5.99897 21.346 5.93934 21.6828 5.82668 22H20.9981C21.2635 21.9989 21.5177 21.893 21.7054 21.7054C21.893 21.5177 21.9989 21.2635 22 20.9981V2H6Z" fill="black"/>
</g>
<defs>
<clipPath id="clip0_1279_4428">
<rect width="24" height="24" fill="white"/>
</clipPath>
</defs>
</svg>

<svg width="24" height="24" viewBox="0 0 24 24" xmlns="http://www.w3.org/2000/svg"><g clip-path="url(#a)" fill-rule="evenodd" clip-rule="evenodd"><path d="M8 14a1 1 0 0 1 1-1h10a1 1 0 1 1 0 2H9a1 1 0 0 1-1-1Zm0 4a1 1 0 0 1 1-1h10a1 1 0 1 1 0 2H9a1 1 0 0 1-1-1ZM8 6a1 1 0 0 1 1-1h10a1 1 0 0 1 1 1v4a1 1 0 0 1-1 1H9a1 1 0 0 1-1-1V6Zm2 1v2h8V7h-8ZM0 13a1 1 0 0 1 1-1h1a1 1 0 1 1 0 2v6.998A1.006 1.006 0 0 0 3.003 22a1 1 0 0 1-.006 2A3.006 3.006 0 0 1 0 21.003V13Z"/><path d="M4 1a1 1 0 0 1 1-1h18a1 1 0 0 1 1 1v20.003A3.006 3.006 0 0 1 21.003 24H3a1 1 0 0 1-.003-2A1.006 1.006 0 0 0 4 20.998V1Zm2 1v19.003c-.001.343-.06.68-.173.997h15.171A1.006 1.006 0 0 0 22 20.998V2H6Z"/></g><defs><clipPath id="a"><path fill="#fff" d="M0 0h24v24H0z"/></clipPath></defs></svg>
